other/wdbible.svg

<?xml version="1.0" encoding="UTF-8" standalone="no"?>
<svg
   xmlns:dc="http://purl.org/dc/elements/1.1/"
   xmlns:cc="http://creativecommons.org/ns#"
   xmlns:rdf="http://www.w3.org/1999/02/22-rdf-syntax-ns#"
   xmlns:svg="http://www.w3.org/2000/svg"
   xmlns="http://www.w3.org/2000/svg"
   xmlns:sodipodi="http://sodipodi.sourceforge.net/DTD/sodipodi-0.dtd"
   xmlns:inkscape="http://www.inkscape.org/namespaces/inkscape"
   width="48"
   height="48"
   viewBox="0 0 48 48"
   version="1.1"
   id="svg4"
   sodipodi:docname="wdbible project.svg"
   inkscape:version="0.92.4 (fd57863, 2020-04-02)">
  <metadata
     id="metadata10">
    <rdf:RDF>
      <cc:Work
         rdf:about="">
        <dc:format>image/svg+xml</dc:format>
        <dc:type
           rdf:resource="http://purl.org/dc/dcmitype/StillImage" />
        <dc:title />
      </cc:Work>
    </rdf:RDF>
  </metadata>
  <defs
     id="defs8" />
  <sodipodi:namedview
     pagecolor="#ffffff"
     bordercolor="#666666"
     borderopacity="1"
     objecttolerance="10"
     gridtolerance="10"
     guidetolerance="10"
     inkscape:pageopacity="0"
     inkscape:pageshadow="2"
     inkscape:window-width="1920"
     inkscape:window-height="1015"
     id="namedview6"
     showgrid="false"
     inkscape:zoom="14.75"
     inkscape:cx="18.812549"
     inkscape:cy="21.593435"
     inkscape:window-x="0"
     inkscape:window-y="28"
     inkscape:window-maximized="1"
     inkscape:current-layer="svg4"
     inkscape:snap-bbox="true"
     inkscape:object-paths="true"
     inkscape:snap-intersection-paths="true"
     showguides="true"
     inkscape:guide-bbox="true"
     inkscape:snap-global="true"
     inkscape:bbox-paths="true"
     inkscape:bbox-nodes="true">
    <sodipodi:guide
       position="-1.1525424,30.847458"
       orientation="1,0"
       id="guide886"
       inkscape:locked="false" />
  </sodipodi:namedview>
  <path
     style="color:#000000;font-style:normal;font-variant:normal;font-weight:normal;font-stretch:normal;font-size:medium;line-height:normal;font-family:sans-serif;font-variant-ligatures:normal;font-variant-position:normal;font-variant-caps:normal;font-variant-numeric:normal;font-variant-alternates:normal;font-feature-settings:normal;text-indent:0;text-align:start;text-decoration:none;text-decoration-line:none;text-decoration-style:solid;text-decoration-color:#000000;letter-spacing:normal;word-spacing:normal;text-transform:none;writing-mode:lr-tb;direction:ltr;text-orientation:mixed;dominant-baseline:auto;baseline-shift:baseline;text-anchor:start;white-space:normal;shape-padding:0;clip-rule:nonzero;display:inline;overflow:visible;visibility:visible;opacity:0.37300002;isolation:auto;mix-blend-mode:normal;color-interpolation:sRGB;color-interpolation-filters:linearRGB;solid-color:#000000;solid-opacity:1;vector-effect:none;fill:#ffffff;fill-opacity:1;fill-rule:nonzero;stroke:none;stroke-width:3.48887634;stroke-linecap:round;stroke-linejoin:miter;stroke-miterlimit:4;stroke-dasharray:none;stroke-dashoffset:0;stroke-opacity:1;color-rendering:auto;image-rendering:auto;shape-rendering:auto;text-rendering:auto;enable-background:accumulate"
     d="M 21.755859 14.685547 C 16.474907 14.792463 11.026964 17.341468 6.4082031 22.8125 C 6.0957411 23.183591 5.6894531 23.647165 5.6894531 24.150391 C 5.6894531 24.648007 6.1001461 25.103709 6.4082031 25.470703 C 11.026964 30.941735 16.474906 33.49074 21.755859 33.597656 C 23.516177 33.633286 25.25874 33.397931 26.945312 32.908203 C 29.955134 32.034248 32.769236 30.406559 35.263672 28.195312 L 32.824219 25.677734 C 30.704604 27.531705 28.372413 28.861781 25.972656 29.558594 C 20.756633 31.073162 15.152169 29.844385 9.8984375 24.140625 C 15.151831 18.437953 20.75702 17.210154 25.972656 18.724609 C 31.461174 20.3183 36.606542 25.230586 39.626953 32.125 C 40.547496 34.288647 43.78919 32.867931 42.822266 30.724609 C 39.465323 23.062023 33.691607 17.333909 26.945312 15.375 C 25.25874 14.885272 23.516177 14.649909 21.755859 14.685547 z M 41.287109 15.099609 C 40.567781 15.076379 39.909112 15.496117 39.626953 16.158203 C 39.002683 17.583166 38.282271 18.918285 37.492188 20.162109 L 39.986328 22.740234 C 41.057878 21.142044 42.012013 19.408084 42.822266 17.558594 C 43.332321 16.426156 42.528464 15.139716 41.287109 15.099609 z M 23.820312 21.986328 L 23.820312 26.050781 L 23.832031 26.050781 L 24.435547 26.050781 L 25.769531 26.050781 L 25.769531 25.457031 L 24.435547 25.457031 L 24.435547 21.986328 L 23.820312 21.986328 z M 18.496094 22.019531 L 18.496094 26.050781 L 19.113281 26.050781 L 19.113281 22.019531 L 18.496094 22.019531 z M 15.080078 22.066406 L 15.080078 26.03125 L 15.673828 25.921875 C 16.513266 25.721444 17.232422 25.272095 17.232422 24.642578 C 17.232422 24.051346 16.689641 23.851722 16.066406 23.769531 C 16.588689 23.600707 16.953125 23.290805 16.953125 22.841797 C 16.953125 22.309975 16.290222 22.149417 15.65625 22.095703 L 15.65625 22.09375 L 15.080078 22.066406 z M 20.513672 22.066406 L 20.513672 26.03125 L 21.105469 25.921875 C 21.944907 25.721444 22.666016 25.272095 22.666016 24.642578 C 22.666016 24.051346 22.121281 23.851722 21.498047 23.769531 C 22.020329 23.600707 22.386719 23.290806 22.386719 22.841797 C 22.386719 22.309976 21.723816 22.149416 21.089844 22.095703 L 21.089844 22.09375 L 20.513672 22.066406 z M 27.099609 22.066406 L 27.099609 22.660156 L 27.099609 25.505859 L 27.099609 25.955078 L 29.154297 25.955078 L 29.154297 25.505859 L 27.693359 25.505859 L 27.693359 24.326172 L 28.927734 24.326172 L 28.927734 23.734375 L 27.693359 23.734375 L 27.693359 22.660156 L 29.154297 22.660156 L 29.154297 22.066406 L 27.693359 22.066406 L 27.099609 22.066406 z M 15.658203 22.373047 C 16.431429 22.412707 16.476563 22.67705 16.476562 22.837891 C 16.476562 23.219659 16.119188 23.386232 15.664062 23.492188 L 15.658203 22.373047 z M 21.091797 22.373047 C 21.865023 22.412717 21.910156 22.67705 21.910156 22.837891 C 21.910156 23.219659 21.55083 23.386232 21.095703 23.492188 L 21.091797 22.373047 z M 15.664062 23.992188 C 16.558946 24.051828 16.59375 24.442603 16.59375 24.640625 C 16.59375 25.164746 16.21401 25.382535 15.669922 25.517578 L 15.664062 23.992188 z M 21.095703 23.992188 C 21.990587 24.051828 22.027344 24.442603 22.027344 24.640625 C 22.027344 25.164746 21.647604 25.382535 21.103516 25.517578 L 21.095703 23.992188 z "
     id="path814" />
</svg>

<?xml version="1.0" encoding="UTF-8"?>
<svg version="1.1" viewBox="0 0 48 48" xmlns="http://www.w3.org/2000/svg">
    <path d="m21.756 14.686c-5.281 0.10692-10.729 2.6559-15.348 8.127-0.31246 0.37109-0.71875 0.83466-0.71875 1.3379 0 0.49762 0.41069 0.95332 0.71875 1.3203 4.6188 5.471 10.067 8.02 15.348 8.127 1.7603 0.03563 3.5029-0.19972 5.1895-0.68945 3.0098-0.87396 5.8239-2.5016 8.3184-4.7129l-2.4395-2.5176c-2.1196 1.854-4.4518 3.184-6.8516 3.8809-5.216 1.5146-10.82 0.28579-16.074-5.418 5.2534-5.7027 10.859-6.9305 16.074-5.416 5.4885 1.5937 10.634 6.506 13.654 13.4 0.92054 2.1636 4.1622 0.74293 3.1953-1.4004-3.3569-7.6626-9.1307-13.391-15.877-15.35-1.6866-0.48973-3.4291-0.72509-5.1895-0.68945zm19.531 0.41406c-0.71933-0.02323-1.378 0.39651-1.6602 1.0586-0.62427 1.425-1.3447 2.7601-2.1348 4.0039l2.4941 2.5781c1.0716-1.5982 2.0257-3.3322 2.8359-5.1816 0.51006-1.1324-0.2938-2.4189-1.5352-2.459zm-17.467 6.8867v4.0645h0.011719 0.60352 1.334v-0.59375h-1.334v-3.4707h-0.61524zm-5.3242 0.033203v4.0312h0.61719v-4.0312h-0.61719zm-3.416 0.046875v3.9648l0.59375-0.10938c0.83944-0.20043 1.5586-0.64978 1.5586-1.2793 0-0.59123-0.54278-0.79086-1.166-0.87305 0.52228-0.16882 0.88672-0.47873 0.88672-0.92773 0-0.53182-0.6629-0.69238-1.2969-0.74609v-0.001953l-0.57617-0.027344zm5.4336 0v3.9648l0.5918-0.10938c0.83944-0.20043 1.5605-0.64978 1.5605-1.2793 0-0.59123-0.54474-0.79086-1.168-0.87305 0.52228-0.16882 0.88867-0.47872 0.88867-0.92773 0-0.53182-0.6629-0.69238-1.2969-0.74609v-0.001953l-0.57617-0.027344zm6.5859 0v0.59375 2.8457 0.44922h2.0547v-0.44922h-1.4609v-1.1797h1.2344v-0.5918h-1.2344v-1.0742h1.4609v-0.59375h-1.4609-0.59375zm-11.441 0.30664c0.77323 0.03966 0.81836 0.304 0.81836 0.46484 0 0.38177-0.35737 0.54834-0.8125 0.6543l-0.005859-1.1191zm5.4336 0c0.77323 0.03967 0.81836 0.304 0.81836 0.46484 0 0.38177-0.35933 0.54834-0.81445 0.6543l-0.003906-1.1191zm-5.4277 1.6191c0.89488 0.05964 0.92969 0.45042 0.92969 0.64844 0 0.52412-0.37974 0.74191-0.92383 0.87695l-0.00586-1.5254zm5.4316 0c0.89488 0.05964 0.93164 0.45042 0.93164 0.64844 0 0.52412-0.37974 0.74191-0.92383 0.87695l-0.007813-1.5254z" fill="#fff"/>
</svg>
